!!!COM: Hugo Wolf
!!!CNT: Deutscher
!!!TXO: Deutsche 
!!!OTL: Die Nacht
!!!ODT: 1880/02/03
!!!ONM: No. 19
!!!LYR: Joseph von Eichendorff
!!!ENC: Brian Bice
!!!YOR: 45 Songs on Poems of Goethe and Eichendorff, Dover Publications, 1995
!!NB: Vocal melody and text only encoded.
**kern	**silbe
*clefG2	*
*k[f#c#g#]	*
*M4/4	*
=5	=5
{8.a	{Nacht
16a	ist
8a	wie
8b	ein
8.a	stil-
16g#	-les
4g#	Meer,
=6	=6
8.g#	Lust
16g#	und
8.cc#	Leid
16cc#	und
(8b	Lie-
16cc#)	|
16dd	-besk-
8dd	-la-
8cc#}	-gen}
=7	=7
{8.cc#	{kom-
16cc#	-men
8cc#	so
8d#	ver-
8.cc#	-wor-
16b#	-ren
4b#	her
=8	=8
8bn	in
8bn	dem
8bn	lin-
(16a	-den
16gn)	|
(4f#	Wel-
8.a)	|
16g#	-len-
=9	=9
8g#	-schla-
8f#}	-gen.}
4r	.
2r	.
=10	=10
{8.b	{Wu2n-
16f#	-sche
8f#	wie
8f#	die
8.b	Wol-
16gn	-ken
4gn	sind,
=11	=11
8e	schif-
8gn	-fen
8ccn	durch
8ccn	die
8ddn	stil-
(16ee	-len
16ffn)	|
8ee	Ra2u-
8cc#}	-me,}
=12	=12
{8.ee-	{wer
16ee-	er-
8ccn	-kennt
8b-	im
8.a-	lau-
16ccn	-en
(8ee-	Wind,
8g-)	|
=13	=13
16r	.
8fn	ob's
16fn	Ge-
8a-	-dan-
8e-	-ken
16r	.
8en	o-
16en	-der
8g#	Tra2u-
8d#;}	-me?}
=16	=16
{8.a	{Schliess'
16a	ich
8a	nun
8b	auch
8.a	Herz
16g#	und
4g#	Mund,
=17	=17
8g#	die
8g#	so
8.cc#	gern
16cc#	den
8b	Ster-
(16cc#	-nen
16dd)	|
8dd	kla-
8cc#}	-gen;}
=18	=18
{8.ff#	{lei-
16cc#	-se
8a	dich
8f#	im
8.cc#	Her-
16b#	-zens-
4b#	-grund
=19	=19
8bn	bleibt
8bn	das
(8bn	lin-
16a)	|
16gn	-de
(4f#	Wel-
8.a)	|
16g#	-len-
=20	=20
8g#	-schla-
8f#}	-gen.}
4r	.
2r	.
*-	*-
